X:1740
T:Rigaudon
T:St. Catherine
C:John Barrett
R:Rigaudon
Z:Transcribed by Frank Nordberg - http://www.musicaviva.com
F:http://abc.musicaviva.com/tunes/barrett-john/barrett-st-catherine/barrett-st-catherine-pno2.abc
V:1 Program 1 6 %Harpsichord
V:2 Program 1 6 bass up %Harpsichord
V:3 Program 1 6 bass merge down %Harpsichord
M:C|
L:1/8
Q:1/2=104
K:A
V:1
ef|e2A2A2B2|c6Bc|dedc BcBA|GAB2[G2B2]ef|
V:2
z2|A,6G,2|A,8|D,8|E,8|
V:3
z2|z4A,,2E,2|z4A,,4|z4D,,4|z4E,,4|
%
V:1
e2A2A2B2|c6Bc|dcBA GABG|A6|:Bc|
V:2
A,6G,2|A,8|z8|A,6|:z2|
V:3
z4A,,2E,2|z4A,,4|D,4E,4|z2E,2A,,2|:z2|
%
V:1
B2E2E2F2|G6Bc|B2E2A2B2|c6cd|
V:2
E,6^D,2|E,8|E,2D,2C,2B,,2|A,,8|
V:3
z4E,,2B,,2|z4E,,4|z8|z4A,,,4|
%
V:1
c2c2f2c2|d6dc|B2BA GABG|A2F4cd|
V:2
z4^A,4|B,8|D4^E4|F,8|
V:3
A,4z2F,2|z4B,,4|B,4C4|z4F,,4|
%
V:1
c2c2f2c2|d6Bc|B2B2e2B2|c6ef|
V:2
z4^A,4|B,8|B,2A,2G,4|A,8|
V:3
F,2G,2z2F,2|z4D,4|z4z2E,2|z4A,,4|
%
V:1
e2e2a2e2|[df][ce][Bd][Ac][G2B2][c2e2]|\
[c2e2][Bd][Ac][dA-][Ac][BG-][GA]|\
[C6E6A6]:|
V:2
z8|z8|F,4E,4|A,,6:|
V:3
A,,2B,,2C,4|D,4E,2C,2|z2D,2z2E,,2|z2E,,2A,,,2:|
W:
W:
W:  From Musica Viva - http://www.musicaviva.com
W:  the Internet center for free sheet music downloads.

